X:730
T:Bonnie Ann #2, The
C:Joe Buchanan's Scottish Tome - Page 514.1
I:514 1
Z:Carl Allison
R:Reel
L:1/8
M:4/4
K:F
F | c2 c2 A2 F2 | B4 d2> d2 | c2 f2 e2 f2 | g4 (ag) |
f2 f f2 A2 | (B2> c2) d2> d2 | c2 f2 A2 G2 | F6 |]
A2 | (d2> e2) (f2 ed2) | e2 f2 g2 (fe) | d2 e2 f2 g2 | a6 g2 |
f2 f2 (gf)(ed) | (c2 > B2) (A2 c2) !crescendo(!| d2 !crescendo)!d2 (ba)(g!crescendo(!f) | !crescendo)!(f3 g/4f/4 !crescendo(!e2) c2 !crescendo)! |
(d2> e2) (f2 ed2) | e2 f2 g2 (fe) | d2 e2 f2 g2 | a6 g2 |
f2 f2 (gf)(ed) | (c2 > B2) (A2 c2) | d"^RALL"cBA G2 !crescendo(!c2 | !crescendo)!F6 |]
